X: 2
T: Denis Murphy's
R: polka
M: 2/4
L: 1/8
K: Dmaj
f/g/f/e/ d/e/d/c/|AD FA|GE e>d|cB BA|
f/g/f/e/ d/e/d/c/|AF DF|GE e>f|1ed d>e:|2ed d>B||
|:Af f/e/f|Ag g/f/g|Af f/e/f|e/f/e/d/ BA|
Af f/e/f|Ag g/f/g/a/|bag>c|1 ed d> B:|2 ed d2||


Tune 357	Setting 13160

